resources/svg/user-6-fill.svg

<svg fill="currentColor" viewBox="0 0 24 24" xmlns="http://www.w3.org/2000/svg"><path d="M12.0009 17C15.6633 17 18.8659 18.5751 20.608 20.9247L18.766 21.796C17.3482 20.1157 14.8483 19 12.0009 19C9.15346 19 6.6535 20.1157 5.23577 21.796L3.39453 20.9238C5.13673 18.5747 8.33894 17 12.0009 17ZM12.0009 2C14.7623 2 17.0009 4.23858 17.0009 7V10C17.0009 12.7614 14.7623 15 12.0009 15C9.23945 15 7.00087 12.7614 7.00087 10V7C7.00087 4.23858 9.23945 2 12.0009 2Z"/></svg>

<svg xmlns="http://www.w3.org/2000/svg" viewBox="0 0 24 24" fill="currentColor">
    <g>
        <path fill="none" d="M0 0h24v24H0z"/>
        <path d="M12 17c3.662 0 6.865 1.575 8.607 3.925l-1.842.871C17.347 20.116 14.847 19 12 19c-2.847 0-5.347 1.116-6.765 2.796l-1.841-.872C5.136 18.574 8.338 17 12 17zm0-15a5 5 0 0 1 5 5v3a5 5 0 0 1-10 0V7a5 5 0 0 1 5-5z"/>
    </g>
</svg>
